X:1
T:Der Tod ist nun verschlungen
T:Georg Böhm 1661 - 1733
T:Source: Denkmäler Deutscher Tonkunst- erste Folge, 44.Band, nr. XXIV. Verlag von Breitkopf & Härtel, Leipzig, 1911
T:Der Tod ist nun verschlungen
T:Wim Looyestijn - 2018. May be freely copied for non-commercial use.
T:Wim Looyestijn - 2018. May be freely copied for non-commercial use.
T:Wim Looyestijn - 2018. May be freely copied for non-commercial use.
T:Wim Looyestijn - 2018. May be freely copied for non-commercial use.
T:Wim Looyestijn - 2018. May be freely copied for non-commercial use.
T:Wim Looyestijn - 2018. May be freely copied for non-commercial use.
C:Georg Böhm
C:1661 - 1733
Z:Wim Looyestijn - 2018. May be freely copied for non-commercial use.
%%score 1 { ( 2 4 ) | 3 }
L:1/8
Q:1/4=60
M:2/2
K:G
V:1 treble nm="MusicXML Part"
V:2 treble nm="MusicXML Part"
V:4 treble 
V:3 bass 
V:1
 z D | GGGA BG z2 | z2 z D GGGA | BG z D FDFA | d2 z E FDFA | d2 z d BABF | G>AFG G2 z2 || %7
w: 1. Der|Tod ist nun ver- schlun- gen,|der Tod ist nun ver-|schlun- gen, das Le- ben geht her-|für, aus sei- nes Gra- bes|Tür; sein Sieg wird wohl be-|sun- * * * gen.|
w: 2. Bringt|Lie- der, Zi- ons Töch- ter,|bringt Lie- der Zi- ons|Töch- ter, der Sie- ger ste- het|auf, so fiel der Fein- de|Hauf' für un- se- rem Ver-|fech- * * * ter.|
w: 13. Den|rüh- men wir mit Schal- le,|den rüh- men wir mit|Schal- le: Tods- zwin- ger, Je- su|Christ! Du un- ser Hel- fer|bist, führ' auf mit dir uns|al- * * * le.|
[M:3/4] z2 z2 G2 | B,2 C2 D2 | ED D2 G2 | B,2 C2 D2 | ED D2 G2 | FE FA GF/G/ | AG FE DE | %14
w: Lob-|sin- get dem|Hei- * land, lob-|sin- get dem|Hei- * land mit|fröh- * * * * * *||
w: |||||||
w: |||||||
 FE FA G>A | A4 D2 | B2 Bc BA | G2 E2 z2 | z6 | z2 z2 B,2 | B2 Bc BA | G2 FE A2 | G3 A F2 | %23
w: * * * * li- cher|Stimm', ver-|stört ist * die *|Höl- le,||ver-|stört ist * die *|Höl- le, * des|To- des sein|
w: |||||||||
w: |||||||||
 E2 z2 E2 | A2 AG GF | F3 E D2 | d3 c cB | B2 B2 d2 | dG G2 c2 | cB BA AG | FE DF EF | GA G3 A | %32
w: Grimm; des|Sie- ges- * fürst *|Je- su vom|Gra- be sich *|he- bet, der|für * uns ge-|stor- * ben, * nun *|e- * * * * *||
w: |||||||||
w: |||||||||
 GF EG FG | AB A3 B | AG FA GA | Bc B3 c | BA GB AB | cd cB AG | FE D2 d2- | dc B A2 G | %40
w: ( e ) * * * * *||||( e ) * * * * *|||* wig- lich * *|
w: ||||||||
w: ||||||||
 G2 G2 x2 |] %41
w: le- bet.|
w: |
w: |
V:2
 z"^Instrument change" [B,D]/[A,C]/ | %1
"^Instrument change" [G,B,]2"^Instrument change" z [F,A,] B,[B,D][B,DG][CD] | %2
"^Instrument change" [DG]"^Instrument change" [DGB]2 [DFd] [DGd][DGB][B,DG][DFA] | %3
"^Instrument change" [DGB]"^Instrument change" [DBd]2 [DGB] [DFA]2 z [A,DF] | %4
"^Instrument change" [A,DA]"^Instrument change"[A,DF][A,DA][A,^CE] [A,DF]2 z [F,A,D] | %5
"^Instrument change" G>FGD [B,DB][DFA][DGB][DFA] | %6
"^Instrument change" [B,EG]"^Instrument change"[CEG]F>G [B,DG][DGB][EGc][CFA] || %7
[M:3/4]"^Instrument change" [B,DG]4"^Instrument change" z2 | %8
"^Instrument change" z2"^Instrument change" z2 [B,D]2 | %9
"^Instrument change" [G,CE]2"^Instrument change" [G,CD]2 [B,G]2 | %10
"^Instrument change" z2"^Instrument change" z2 [B,D]2 | %11
"^Instrument change" [G,CE]2"^Instrument change" D2 G2 | %12
"^Instrument change" [A,DF]2 [F,A,D]2"^Instrument change" DE | %13
"^Instrument change" FE D2"^Instrument change" z2 | %14
"^Instrument change" [DFA]2 [CDF]2"^Instrument change" [B,DB]2 |"^Instrument change" A3 F D2 | %16
"^Instrument change" [B,DG]2"^Instrument change" GA [B,^DF]2 | %17
"^Instrument change" [B,EG]2"^Instrument change" GA GF | %18
"^Instrument change" E2"^Instrument change" EG FE | %19
"^Instrument change" ^D3 ^C B,2"^Instrument change" |"^Instrument change" [B,E]4 ^D2 | %21
"^Instrument change" E2"^Instrument change" B,2 EF | %22
"^Instrument change" GF"^Instrument change" AG F2 | %23
"^Instrument change" [G,B,E]2"^Instrument change" z2 [G,B,G]2 | %24
"^Instrument change" [A,E]2"^Instrument change" FG A2 | %25
"^Instrument change" F2"^Instrument change" FE D2 | %26
"^Instrument change" GF"^Instrument change" E2 D2 | %27
"^Instrument change" D2"^Instrument change" G2 D2 | %28
"^Instrument change" D2"^Instrument change" CB, C2 | %29
"^Instrument change" [E,C][D,B,]"^Instrument change" B,A, B,^C | %30
"^Instrument change" [F,D]4"^Instrument change" z2 | %31
"^Instrument change" z2"^Instrument change" GA G2 | %32
"^Instrument change" D2"^Instrument change" C2 z2 | %33
"^Instrument change" z2"^Instrument change" AB A2 | %34
"^Instrument change" E2"^Instrument change" D2 z2 | %35
"^Instrument change" z2"^Instrument change" Bc B2 | %36
"^Instrument change" F2"^Instrument change" E2 z2 | %37
"^Instrument change" AB"^Instrument change" AG FE | %38
"^Instrument change" D2 E"^Instrument change"F G2 | %39
"^Instrument change" DG"^Instrument change" GA FG | %40
"^Instrument change" [CDG]2"^Instrument change" [B,DG]2 z2 |] %41
V:3
 z G,,, | G,,2 z D, G,G,G,A, | B,G,G,,D,, B,,,G,,,G,,D, | G,G,,G,,G,,, D,,2 z D,, | %4
 F,,D,,F,,A,, D,2 z D,/C,/ | B,,A,,B,,F,, G,,D,,G,,,D,, | E,,C,D,D,, G,,G,,G,,G,, || %7
[M:3/4] G,,4 z2 | z2 z2 G,2 | C,2 G,,2 G,,,2 | z2 z2 G,2 | C,2 G,,2 E,,2 | D,,4 G,,2 | D,4 z2 | %14
 D,,4 G,,2 | D,2 E,2 F,2 | G,2 E,2 B,,2 | E,,2 E,2 D,2 | C,2 B,,2 A,,2 | B,,2 B,,,2 B,,2 | %20
 G,,2 E,,2 B,,2 | E,2 D,2 C,2 | B,,2 A,,2 B,,2 | E,,2 G,,F,, E,,D,, | ^C,,2 B,,,2 A,,,2 | %25
 D,,2 D,2 C,2 | B,,2 C,2 D,2 | G,,2 G,2 B,,2 | E,2 E,,2 A,,2 | G,,2 F,,2 E,,2 | D,,4 z2 | %31
 z2 B,,2 G,,2 | C,2 C,,2 z2 | z2 ^C,2 A,,2 | D,2 D,,2 z2 | z2 ^D,2 B,,2 | E,2 E,,2 z2 | %37
 A,,2 B,,2 C,2 | D,3 C, B,,A,, | G,,2 D,2 D,,2 | G,,2 G,,2 x2 |] %41
V:4
 x2 | x8 | x8 | x8 | x8 | [G,D]"^Instrument change"[A,C][G,D][A,D] x4 | B,C[A,D][CD] x4 || %7
[M:3/4] x6 | x6 | x6 | x6 | x2 B,3 ^C | x2 x2 [G,B,]2 | [F,A,]4 x2 | x6 | %15
 [DF]2"^Instrument change" [A,D]4 | x6 | x2 [G,B,]2 [G,B,]2 | [G,C]2 [G,C]2 [A,C]2 | %19
 [F,B,]4 [^D,F,]2 | E,F,"^Instrument change" G,A, B,2 | [G,B,]4 A,2 | [B,E]2 [CE]2 [A,^D]2 | x6 | %24
 x2 [A,D]2 [A,^C]2 | [A,D]2 [F,A,]2 [F,A,]2 | [G,D]2 [G,A,]2 [F,A,]2 | [G,B,]2 [B,D]2 G,2 | %28
 G,2 G,2 F,2 | xx G,2 G,2 | x6 | x2 D2 [B,D]2 | [G,E]4 x2 | x2 E2 [^CE]2 | [A,F]4 x2 | %35
 x2 F2 [^DF]2 | [B,G]4 x2 | C2 C2 A,2 | F,3 [A,D] [G,D]2 | [G,B,]2 [B,D]2 [CD]2 | x6 |] %41

